**kern	**kern	**dynam
*part1	*part1	*part1
*staff2	*staff1	*
*IPiano	*IPiano	*IPiano
*clefG2	*clefG2	*clefG2
*k[b-e-a-d-g-c-]	*k[b-e-a-d-g-c-]	*k[b-e-a-d-g-c-]
*M4/4	*M4/4	*M4/4
*MM126	*MM126	*MM126
=1	=1	=1
!Tempo Marking: Anime	!Tempo Marking: Anime	!Tempo Marking: Anime
!	!Expression:aussi legerement que possible	!
8B-'	(24B-LL	pp
.	24c-	.
.	24b-	.
8ryy	24cc-	.
.	24b-	.
.	24c-JJ	.
8B-'	24B-LL	.
.	24c-	.
.	24b-	.
8ryy	24cc-	.
.	24b-	.
.	24c-JJ	.
8B-'	24B-LL	.
.	24c-	.
.	24b-	.
8ryy	24cc-	.
.	24b-	.
.	24c-JJ	.
8B-'	24B-LL	.
.	24c-	.
.	24b-	.
8ryy	24cc-	.
.	24b-	.
.	24c-JJ	.
=2	=2	=2
8B-'	24B-LL	.
.	24c-	.
.	24b-	.
8ryy	24cc-	.
.	24b-	.
.	24c-JJ	.
8B-'	24B-LL	.
.	24c-	.
.	24b-	.
8ryy	24cc-	.
.	24b-	.
.	24c-JJ	.
8B-'	24B-LL	.
.	24c-	.
.	24b-	.
8ryy	24cc-	.
.	24b-	.
.	24c-JJ	.
8B-'	24B-LL	.
.	24c-	.
.	24b-	.
8ryy	24cc-	.
.	24b-	.
.	24c-JJ)	.
=3	=3	=3
*^	*	*
8B-'	8rff	(24B-LL	.
.	.	24c-	.
.	.	24b-	.
8ryy	16.rff	24cc-	.
.	.	24b-	.
.	.	24c-JJ	.
.	(>32e-	.	.
4ryy	[4d-)	24ryy	.
.	.	24c-LL	.
.	.	24b-	.
.	.	24cc-	.
.	.	24b-	.
.	.	24c-JJ	.
8B-'	(>8..d-L]	24ryy	.
.	.	24c-LL	.
.	.	24b-	.
8ryy	.	24cc-	.
.	.	24b-	.
.	.	24c-JJ	.
.	32e-Jkk	.	.
4ryy	8..d-L	24ryy	.
.	.	24c-LL	.
.	.	24b-	.
.	.	24cc-	.
.	.	24b-	.
.	.	24c-JJ	.
.	32e-Jkk	.	.
*v	*v	*	*
=4	=4	=4
8..g-L	24ryy	.
.	24c-LL	.
.	24b-	.
.	24cc-	.
.	24b-	.
.	24c-JJ	.
32e-Jkk	.	.
2d-	24ryy	.
.	24c-LL	.
.	24b-	.
.	24cc-	.
.	24b-	.
.	24c-JJ	.
.	24ryy	.
.	24c-LL	.
.	24b-	.
.	24cc-	.
.	24b-	.
.	24c-JJ	.
[4B-~)	24ryy	.
.	24c-LL	.
.	24b-	.
.	24cc-	.
.	24b-	.
.	24c-JJ)	.
=5	=5	=5
*^	*	*
(>4B-_	4B-	24ryy	<
.	.	(24c-LL	.
.	.	24b-	.
.	.	24cc-	.
.	.	24b-	.
.	.	24c-JJ	.
16qqg-/LL	.	.	[>
16qqe-/JJ	.	.	.
4d-)	8B-]	24ryy	]
.	.	24c-LL	.
.	.	24b-	.
.	8r	24cc-	.
.	.	24b-	.
.	.	24c-JJ	.
(>4B-~	[4B-	24ryy	<
.	.	24c-LL	.
.	.	24b-	.
.	.	24cc-	.
.	.	24b-	.
.	.	24c-JJ	.
16qqf/LL	.	.	[>
16qqe--/JJ	.	.	.
4d-)	8B-]	24ryy	]
.	.	24c-LL	.
.	.	24b-	.
.	8r	24cc-	.
.	.	24b-	.
.	.	24c-JJ	.
=6	=6	=6	=6
(>[4B-~	4B-	24ryy	<
.	.	24c-LL	.
.	.	24b-	.
.	.	24cc-	.
.	.	24b-	.
.	.	24c-JJ	.
16qqg-/LL	.	.	[>
16qqe-/JJ	.	.	.
4d-)	8B-]	24ryy	]
.	.	24c-LL	.
.	.	24b-	.
.	8r	24cc-	.
.	.	24b-	.
.	.	24c-JJ	.
(>4B-~	[4B-	24ryy	<
.	.	24c-LL	.
.	.	24b-	.
.	.	24cc-	.
.	.	24b-	.
.	.	24c-JJ	.
16qqf/LL	.	.	[>
16qqe--/JJ	.	.	.
4d-)	8B-]	24ryy	]
.	.	24c-LL	.
.	.	24b-	.
.	8r	24cc-	.
.	.	24b-	.
.	.	24c-JJ)	.
*v	*v	*	*
=7	=7	=7
8B-'	(24B-LL	pp
.	24c-	.
.	24b-	.
8ryy	24cc-	.
.	24b-	.
.	24c-JJ	.
8B-'	24B-LL	.
.	24c-	.
.	24b-	.
8ryy	24cc-	.
.	24b-	.
.	24c-JJ	.
8B-'	24B-LL	.
.	24c-	.
.	24b-	.
8ryy	24cc-	.
.	24b-	.
.	24c-JJ	.
8B-'	24B-LL	.
.	24c-	.
.	24b-	.
8ryy	24cc-	.
.	24b-	.
.	24c-JJ	.
=8	=8	=8
8B-'	24B-LL	.
.	24c-	.
.	24b-	.
8ryy	24cc-	.
.	24b-	.
.	24c-JJ	.
8B-'	24B-LL	.
.	24c-	.
.	24b-	.
8ryy	24cc-	.
.	24b-	.
.	24c-JJ	.
8B-'	24B-LL	.
.	24c-	.
.	24b-	.
8ryy	24cc-	.
.	24b-	.
.	24c-JJ	.
8b-'	16b-LL	<
.	16c-	.
8ryy	16bb-	.
.	16ccc-JJ)	.
*clefF4	*	*
=9	=9	=9
*	*8va	*
[1EEE- [1BBB-	(>8ddd-'L 8eee- 8ggg- 8bbb-	[pp
.	8bb-' 8cccn 8eee- 8ggg-	.
.	8gg-' 8bb- 8ddd- 8eee-	.
.	8ee-'J 8gg- 8bb- 8ccc	.
*	*X8va	*
.	8dd-'L 8ee- 8gg- 8bb-	.
.	8b-' 8cc 8ee- 8gg-	.
.	8g-' 8b- 8dd- 8ee-	.
.	8e-'J 8g- 8b- 8cc	.
=10	=10	=10
(<2EEE-] 2BBB-]	8d-'L 8e- 8g- 8b-	>
.	8B-' 8cn 8e- 8g-	.
*	*clefF4	*
.	8G-' 8B- 8d- 8e-	.
.	8E-'J 8G- 8B- 8cn	.
!Tempo Marking: Cedez	!Tempo Marking: Cedez	!Tempo Marking: Cedez
4AAA-' 4EE-	2D-~) 2E- 2G- 2B-	]
4GGG-Z') 4DD-	.	.
=11	=11	=11
*	*clefG2	*
*	*8va	*
!Tempo Marking: a Tempo	!Tempo Marking: a Tempo	!Tempo Marking: a Tempo
[1EEE- [1BBB-	(>8ddd-'L 8eee- 8ggg- 8bbb-	pp
.	8bb-' 8cccn 8eee- 8ggg-	.
.	8gg-' 8bb- 8ddd- 8eee-	.
.	8ee-'J 8gg- 8bb- 8ccc	.
*	*X8va	*
.	8dd-'L 8ee- 8gg- 8bb-	.
.	8b-' 8cc 8ee- 8gg-	.
.	8g-' 8b- 8dd- 8ee-	.
.	8e-'J 8g- 8b- 8cc	.
=12	=12	=12
(<2EEE-] 2BBB-]	8d-'L 8e- 8g- 8b-	>
.	8B-' 8cn 8e- 8g-	.
*	*clefF4	*
.	8G-' 8B- 8d- 8e-	.
.	8E-'J 8G- 8B- 8cn	.
!Tempo Marking: Cedez	!Tempo Marking: Cedez	!Tempo Marking: Cedez
4GGG-' 4DD-	2D-~) 2E- 2G- 2B-	]<
4AAA-Z') 4EE-	.	.
=13	=13	=13
!Tempo Marking: a Tempo	!Tempo Marking: a Tempo	!Tempo Marking: a Tempo
4BBB-	(24BBB-LL	[p
.	24C-X	.
.	24B-	.
.	24c-	.
.	24B-	.
.	24C-JJ	.
4BB-	24BB-LL	<z
.	24C-	.
.	24B-	.
.	24c-	.
.	24B-	.
.	24C-JJ	.
8B-'	24B-LL	[p
*	*clefG2	*
.	24c-	.
.	24b-	.
8r	24cc-	.
.	24b-	.
.	24c-JJ	.
8B-'	24B-LL	.
.	24c-	.
.	24b-	.
8r	24cc-	.
.	24b-	.
.	24c-JJ	.
=14	=14	=14
8B-'	24B-LL	>
.	24c-	.
.	24b-	.
8r	24cc-	.
.	24b-	.
.	24c-JJ	.
8B-'	24B-LL	.
.	24c-	.
.	24b-	.
8r	24cc-	.
.	24b-	.
.	24c-JJ	.
8B-'	24B-LL	.
.	24c-	.
.	24b-	.
8r	24cc-	.
.	24b-	.
.	24c-JJ	.
8B-'	24B-LL	.
.	24c-	.
.	24b-	.
8r	24cc-	.
.	24b-	.
.	24c-JJ)	.
=15	=15	=15
*clefG2	*	*
*^	*	*
[4B--~	8rdd	(24B--LL	]pp
.	.	24c-	.
.	.	24b--	.
.	16.rdd	24cc-	.
.	.	24b--	.
.	.	24c-JJ	.
.	32e-	.	.
8B--]	[4d-	24ryy	.
.	.	24c-LL	.
.	.	24b--	.
8rBB	.	24cc-	.
.	.	24b--	.
.	.	24c-JJ	.
8B--'	(>8..d-L]	24ryy	.
.	.	24c-LL	.
.	.	24b--	.
8rBB	.	24cc-	.
.	.	24b--	.
.	.	24c-JJ	.
.	32e-Jkk	.	.
4rBB	8..d-L	24ryy	.
.	.	24c-LL	.
.	.	24b--	.
.	.	24cc-	.
.	.	24b--	.
.	.	24c-JJ	.
.	32e-Jkk)	.	.
=16	=16	=16	=16
8B--'	(>8..g-L	24ryy	.
.	.	24c-LL	.
.	.	24b--	.
8rBB	.	24cc-	.
.	.	24b--	.
.	.	24c-JJ	.
.	32e-Jkk)	.	.
4rGG	(>2d-	24ryy	<
.	.	24c-LL	.
.	.	24b--	.
.	.	24cc-	.
.	.	24b--	.
.	.	24c-JJ	.
8B--'	.	24ryy	.
.	.	24c-LL	.
.	.	24b--	.
8rD	.	24cc-	.
.	.	24b--	.
.	.	24c-JJ	.
4rBB	4e-)	24ryy	[
.	.	24c-LL	.
.	.	24b--	.
.	.	24cc-	.
.	.	24b--	.
.	.	24c-JJ)	.
=17	=17	=17	=17
*	*^	*	*
!!linebreak:original
(>4g-	8B--	(<8..d-\L	24ryy	pp<
.	.	.	(24c-LL	.
.	.	.	24b--	.
.	8ryy	.	24cc-	.
.	.	.	24b--	.
.	.	.	24c-JJ	.
.	.	32e--\Jkk	.	.
4a-)	4ryy	4e-X\)	24ryy	[
.	.	.	24c-LL	.
.	.	.	24b--	.
.	.	.	24cc-	.
.	.	.	24b--	.
.	.	.	24c-JJ	.
(>4g-	8B--	(<8..d-\L	24ryy	pp<
.	.	.	24c-LL	.
.	.	.	24b--	.
.	8ryy	.	24cc-	.
.	.	.	24b--	.
.	.	.	24c-JJ	.
.	.	32e--\Jkk	.	.
4a-)	4ryy	4e-X\)	24ryy	[
.	.	.	24c-LL	.
.	.	.	24b--	.
.	.	.	24cc-	.
.	.	.	24b--	.
.	.	.	24c-JJ	.
*v	*v	*v	*	*
=18	=18	=18
8B-'	24B-LL	pp
.	24c-	.
.	24b-X	.
8r	24cc-	.
.	24b-	.
.	24c-JJ	.
8B-'	24B-LL	.
.	24c-	.
.	24b-	.
8r	24cc-	.
.	24b-	.
.	24c-JJ	.
8B-'	24B-LL	.
.	24c-	.
.	24b-	.
8r	24cc-	.
.	24b-	.
.	24c-JJ	.
8B-'	24B-LL	.
.	24c-	.
.	24b-	.
8r	24cc-	.
.	24b-	.
.	24c-JJ)	.
=19	=19	=19
*^	*	*
8re	4B--~	(24B--LL	.
.	.	24c-	.
.	.	24b--	.
16.rc	.	24cc-	.
.	.	24b--	.
.	.	24c-JJ	.
(>32f	.	.	.
[4e-)	4rc	24ryy	.
.	.	24c-LL	.
.	.	24b--	.
.	.	24cc-	.
.	.	24b--	.
.	.	24c-JJ	.
(>8..e-L]	4B--	24ryy	.
.	.	24c-LL	.
.	.	24b--	.
.	.	24cc-	.
.	.	24b--	.
.	.	24c-JJ	.
32fJkk)	.	.	.
(>8..e-L	4rcyy	24ryy	.
.	.	24c-LL	.
.	.	24b--	.
.	.	24cc-	.
.	.	24b--	.
.	.	24c-JJ	.
32fJkk)	.	.	.
=20	=20	=20	=20
(>8..a-L	8B--	24ryy	.
.	.	24c-LL	.
.	.	24b--	.
.	8re	24cc-	.
.	.	24b--	.
.	.	24c-JJ	.
32fJkk)	.	.	.
(>2e-	4rc	24ryy	.
.	.	24c-LL	.
.	.	24b--	.
.	.	24cc-	.
.	.	24b--	.
.	.	24c-JJ	.
.	8B--'	24ryy	.
.	.	24c-LL	.
.	.	24b--	.
.	8rc	24cc-	.
.	.	24b--	.
.	.	24c-JJ	.
4f)	4rc	24ryy	.
.	.	24c-LL	.
.	.	24b--	.
.	.	24cc-	.
.	.	24b--	.
.	.	24c-JJ)	.
=21||	=21||	=21||	=21||
*k[]	*k[]	*k[]	*k[]
((>4d	(<4F 4A	24ryy	<
.	.	(>24BLL	.
.	.	24a	.
.	.	24b	.
.	.	24a	.
.	.	24BJJ	.
4g)	4B) 4d	24ryy	[
.	.	24BLL	.
.	.	24a	.
.	.	24b	.
.	.	24a	.
.	.	24BJJ	.
(>4d	(<4F 4A	24ryy	<
.	.	24BLL	.
.	.	24a	.
.	.	24b	.
.	.	24a	.
.	.	24BJJ	.
4f))	4d-)	24ryy	[
.	.	24BLL	.
.	.	24a	.
.	.	24b	.
.	.	24a	.
.	.	24BJJ)	.
*v	*v	*	*
*clefF4	*clefF4	*
=22	=22	=22
*	*^	*
*	*	*^	*
[1GG~ [1D-	24ALL	(<1F~	2ryy	pp
.	24B	.	.	.
.	24A	.	.	.
.	24B	.	.	.
.	24A	.	.	.
.	24BJJ	.	.	.
*	*clefG2	*	*	*
.	24d-XLL	.	.	.
.	24e-X	.	.	.
.	24d-	.	.	.
.	24e-	.	.	.
.	24d-	.	.	.
.	24e-JJ	.	.	.
.	24aLL	.	4f\	.
.	24b	.	.	.
.	24a	.	.	.
.	24b	.	.	.
.	24a	.	.	.
.	24bJJ	.	.	.
.	24d-LL	.	4ryy	.
.	24e-	.	.	.
.	24d-	.	.	.
.	24e-	.	.	.
.	24d-	.	.	.
.	24e-JJ)	.	.	.
*	*	*v	*v	*
=23	=23	=23l	=23
*	*clefF4	*	*
(>4GG] 4D-X]	1F	(>24ALL	.
.	.	24B	.
.	.	24A	.
.	.	24B	.
.	.	24A	.
.	.	24BJJ	.
4FF 4C	.	24ALL	.
.	.	24B	.
.	.	24A	.
.	.	24B	.
.	.	24A	.
.	.	24BJJ	.
4DDn 4AA	.	24ALL	.
.	.	24B	.
.	.	24A	.
.	.	24B	.
.	.	24A	.
.	.	24BJJ	.
4FF 4C	.	24ALL	.
.	.	24B	.
.	.	24A	.
.	.	24B	.
.	.	24A	.
.	.	24BJJ	.
=24	=24	=24	=24
2GG 2D-	24ALL	2F	<
.	24B	.	.
.	24A	.	.
.	24B	.	.
.	24A	.	.
.	24BJJ	.	.
.	24ALL	.	.
.	24B	.	.
.	24A	.	.
.	24B	.	.
.	24A	.	.
.	24BJJ	.	.
2AA) 2E	24BLL	2G	.
.	24c#X	.	.
.	24B	.	.
.	24c#	.	.
.	24B	.	.
.	24c#JJ	.	.
.	24BLL	.	.
.	24c#	.	.
.	24B	.	.
.	24c#	.	.
.	24B	.	.
.	24c#JJ)	.	.
=25	=25	=25	=25
*	*	*^	*
[1AA- [1D	24B-XLL	(<1G-X	2ryy	[pp
.	24c	.	.	.
.	24B-	.	.	.
.	24c	.	.	.
.	24B-	.	.	.
.	24cJJ	.	.	.
*	*clefG2	*	*	*
.	24dLL	.	.	.
.	24e	.	.	.
.	24d	.	.	.
.	24e	.	.	.
.	24d	.	.	.
.	24eJJ	.	.	.
.	24b-XLL	.	4g-X\	.
.	24cc	.	.	.
.	24b-	.	.	.
.	24cc	.	.	.
.	24b-	.	.	.
.	24ccJJ	.	.	.
.	24dLL	.	4ryy	.
.	24e	.	.	.
.	24d	.	.	.
.	24e	.	.	.
.	24d	.	.	.
.	24eJJ)	.	.	.
*	*	*v	*v	*
=26	=26	=26	=26
*	*clefF4	*	*
(<4AA-X] 4D]	1G-	(24B-LL	.
.	.	24c	.
.	.	24B-	.
.	.	24c	.
.	.	24B-	.
.	.	24cJJ	.
4GG-X 4D-X	.	24B-LL	.
.	.	24c	.
.	.	24B-	.
.	.	24c	.
.	.	24B-	.
.	.	24cJJ	.
4EE-X 4BB-X	.	24B-LL	.
.	.	24c	.
.	.	24B-	.
.	.	24c	.
.	.	24B-	.
.	.	24cJJ	.
4GG- 4D-	.	24B-LL	.
.	.	24c	.
.	.	24B-	.
.	.	24c	.
.	.	24B-	.
.	.	24cJJ	.
=27	=27	=27	=27
1AA-) 1Dn	24B-LL	>4G-	<
.	24c	.	.
.	24B-	.	.
.	24c	.	.
.	24B-	.	.
.	24cJJ	.	.
*	*clefG2	*	*
.	24dLL	4ryy	.
.	24e	.	.
.	24d	.	.
.	24e	.	.
.	24d	.	.
.	24eJJ	.	.
.	24b-LL	4g-	.
.	24cc	.	.
.	24b-	.	.
.	24cc	.	.
.	24b-	.	.
.	24ccJJ	.	.
.	16ddLL	8ryy	.
.	16eeJJ	.	.
.	8ryy	16dddLL	.
.	.	16eeeJJ)	.
*	*v	*v	*
=28||	=28||	=28||
*k[b-e-a-d-g-c-]	*k[b-e-a-d-g-c-]	*k[b-e-a-d-g-c-]
*^	*	*
(>16GGG-LL	(<1GGG-	(>16gg-^LL 16bb- 16ddd- 16ggg-	[f<
16DD-JJ	.	16g-J 16b- 16dd- 16gg-	.
8ryy	.	8D-~J) 8G- 8B- 8d-	[
!	!	!	!Dynamic Expression: Multiple markings, spine 1 = pp
24GGG-LL	.	[2.G-~^^) [2.B- [2.d- [2.g-	p
24DD-	.	.	.
24GGG-	.	.	.
24DD-	.	.	.
24GGG-	.	.	.
24DD-JJ	.	.	.
24GGG-LL	.	.	.
24DD-	.	.	.
24GGG-	.	.	.
24DD-	.	.	.
24GGG-	.	.	.
24DD-JJ	.	.	.
24GGG-LL	.	.	.
24DD-	.	.	.
24GGG-	.	.	.
24DD-	.	.	.
24GGG-	.	.	.
24DD-JJ	.	.	.
*v	*v	*	*
=29	=29	=29
24GGG-LL	4G-] 4B-] 4d-] 4g-]	.
24DD-	.	.
24GGG-	.	.
24DD-	.	.
24GGG-	.	.
24DD-JJ	.	.
24BBB--LL	(4F-~ 4A-- 4c 4f-	pp>
24FF-X	.	.
24BBB--	.	.
24FF-	.	.
24BBB--	.	.
24FF-JJ	.	.
24DD-LL	4D-~ 4Fn 4A- 4d-	.
24AA-	.	.
24DD-	.	.
24AA-	.	.
24DD-	.	.
24AA-JJ	.	.
24BBB--LL	4F-~) 4A-- 4c 4f-	.
24FF-	.	.
24BBB--	.	.
24FF-	.	.
24BBB--	.	.
24FF-JJ))	.	.
=30	=30	=30
*^	*	*
(>16GGG-LL	2GGG-	(>16gg-^LL 16bb- 16ddd- 16ggg-	f<
16DD-JJ	.	16g-J 16b- 16dd- 16gg-	.
8ryy	.	8D-J) 8G- 8B- 8d-	[
4G-~^^) 4B- 4d- 4g-	.	4ryy	p
(>16BBB--LL	2BBB--	(>16bb--^LL 16ddd- 16fff- 16bbb--	f<
16FF-JJ	.	16b--J 16dd- 16ff- 16bb--	.
8ryy	.	8F-J) 8B-- 8d- 8f-	[
4B--~^^) 4d- 4f- 4b--	.	4ryy	p
=31	=31	=31	=31
(>16GGG-LL	1GGG-	(>16gg-^LL 16bb-X 16ddd- 16ggg-	f<
16DD-JJ	.	16g-J 16b-X 16dd- 16gg-	.
8ryy	.	8D-~J) 8G- 8B-X 8d-	[
!	!	!	!Dynamic Expression: Multiple markings, spine 1 = pp
24GGG-LL	.	([2.G-~^^) [2.B- [2.d- [2.g-	p
24DD-	.	.	.
24GGG-	.	.	.
24DD-	.	.	.
24GGG-	.	.	.
24DD-JJ	.	.	.
24GGG-LL	.	.	.
24DD-	.	.	.
24GGG-	.	.	.
24DD-	.	.	.
24GGG-	.	.	.
24DD-JJ	.	.	.
24GGG-LL	.	.	.
24DD-	.	.	.
24GGG-	.	.	.
24DD-	.	.	.
24GGG-	.	.	.
24DD-JJ	.	.	.
*v	*v	*	*
=32	=32	=32
24GGG-LL	4G-] 4B-] 4d-] 4g-]	.
24DD-	.	.
24GGG-	.	.
24DD-	.	.
24GGG-	.	.
24DD-JJ	.	.
24BBB--LL	4F-~ 4A-- 4c 4f-	pp>
24FF-X	.	.
24BBB--	.	.
24FF-	.	.
24BBB--	.	.
24FF-JJ	.	.
24DD-LL	4D-~ 4Fn 4A- 4d-	.
24AA-	.	.
24DD-	.	.
24AA-	.	.
24DD-	.	.
24AA-JJ	.	.
24BBB--LL	4F-~) 4A-- 4c 4f-	.
24FF-	.	.
24BBB--	.	.
24FF-	.	.
24BBB--	.	.
24FF-JJ)	.	.
=33||	=33||	=33||
*k[]	*k[]	*k[]
*^	*	*
16GGGLL	(<2GGG	(>16gg^LL 16bb 16ddd 16ggg	f<
16DDJJ	.	16gJ 16b 16dd 16gg	.
8ryy	.	8D~J) 8G 8B 8d	[
4G~^^) 4B 4d 4g	.	4ryy	p
16BBBLL	(<2BBB	(>16bb^LL 16ddd#X 16fff#X 16bbb	f<
16FF#XJJ	.	16bJ 16dd#X 16ff#X 16bb	.
8ryy	.	8F#~J) 8B 8d# 8f#	[
4B~^^) 4d#X 4f#X 4b	.	4ryy	p
=34	=34	=34	=34
*	*^	*	*
(>16GGG#XLL	2GGG#	4ryy	(>16gg#X^LL 16ccc 16ddd#X 16ggg#X	f<
16DD#XJJ)	.	.	16g#XJ 16b#X 16dd#X 16gg#	.
8ryy	.	.	8D#~J) 8G# 8B# 8d#	[
*clefG2	*	*	*	*
8g#'\	.	4ryy	(>24g#XLL	.
.	.	.	24a	.
.	.	.	24gg#	.
8ryy	.	.	24aa	.
.	.	.	24gg#	.
.	.	.	24aJJ	.
8g#'\	2ryy	2ryy	24g#LL	.
.	.	.	24a	.
.	.	.	24gg#	.
8ryy	.	.	24aa	.
.	.	.	24gg#	.
.	.	.	24aJJ	.
8g#\	.	.	24g#'LL	.
.	.	.	24a	.
.	.	.	24gg#	.
8ryy	.	.	24aa	.
.	.	.	24gg#	.
.	.	.	24aJJ	.
*v	*v	*v	*	*
=35	=35	=35
8g#	24g#'LL	.
.	24a	.
!	!	!Dynamic Expression: dim
.	24gg#	.
8ryy	24aa	.
.	24gg#	.
.	24aJJ	.
8g#	24g#'LL	.
.	24a	.
.	24gg#	.
8ryy	24aa	.
.	24gg#	.
.	24aJJ	.
8g#	24g#'LL	.
!	!	!Dynamic Expression: molto
.	24a	.
.	24gg#	.
8ryy	24aa	.
.	24gg#	.
.	24aJJ	.
8g#	24g#'LL	.
.	24a	.
.	24gg#	.
8ryy	24aa	.
.	24gg#	.
.	24aJJ)	.
=36	=36	=36
*^	*	*
[4g#	8r	(>24g#LL	p
.	.	24a	.
.	.	24gg#	.
.	16.re	24aa	.
.	.	24gg#	.
.	.	24aJJ	.
.	(>32cc#X/	.	.
8g#]	[4b/)	24ryy	.
.	.	24aLL	.
.	.	24gg#X	.
8r	.	24aa	.
.	.	24gg#	.
.	.	24aJJ	.
(<8g#	(>8..b/L]	24ryy	.
.	.	24aLL	.
.	.	24gg#	.
8r	.	24aa	.
.	.	24gg#	.
.	.	24aJJ	.
.	32cc#/Jkk)	.	.
4ryy	(>8..b/L	24ryy	.
.	.	24aLL	.
.	.	24gg#	.
.	.	24aa	.
.	.	24gg#	.
.	.	24aJJ	.
.	32cc#/Jkk)	.	.
=37	=37	=37	=37
(>8..eeL	8g#X'	24ryy	.
.	.	24aLL	.
.	.	24gg#X	.
.	8r	24aa	.
.	.	24gg#	.
.	.	24aJJ	.
(>32cc#XJkk	.	.	.
2b)	4r	24ryy	.
.	.	24aLL	.
.	.	24gg#	.
.	.	24aa	<
.	.	24gg#	.
.	.	24aJJ	.
.	8g#'	24ryy	.
.	.	24aLL	.
.	.	24gg#	.
.	8r	24aa	.
.	.	24gg#	.
.	.	24aJJ	[
4cc#)	4r	24ryy	.
.	.	24aLL	.
.	.	24gg#	.
.	.	24aa	.
.	.	24gg#	.
.	.	24aJJ)	.
*v	*v	*	*
=38	=38	=38
8g#'	(>24g#LL	p<
.	24a	.
.	24gg#	.
8ryy	24aa	.
.	24gg#	.
.	24aJJ	.
8g'	24gnLL	.
.	24a-	.
.	24ggn	.
8ryy	24aa-	.
.	24gg	.
.	24a-JJ	.
8f#'	24f#LL	.
.	24g	.
.	24ff#	.
8ryy	24gg	.
.	24ff#	.
.	24gJJ	.
8a'	24aLL	.
.	24b-	.
.	24aan	.
8ryy	24bb-	.
.	24aa	.
.	24b-JJ	.
=39	=39	=39
8g#'	24g#XLL	[>
.	24a	.
.	24gg#	.
8ryy	24aa	.
.	24gg#	.
.	24aJJ	.
8g'	24gnLL	.
.	24a-	.
.	24ggn	.
8ryy	24aa-	.
.	24gg	.
.	24a-JJ	.
8f#'	24f#XLL	.
.	24g	.
.	24ff#	.
8ryy	24gg	.
.	24ff#	.
.	24gJJ	.
8f'	24fnLL	.
.	24g-	.
.	24ffn	.
8ryy	24gg-	.
.	24ff	.
.	24g-JJ)	.
*^	*	*
=40	=40	=40	=40
8r	[4e	(24eLL	]p
.	.	24f	.
.	.	24ee	.
16.r	.	24ff	.
.	.	24ee	.
.	.	24fJJ	.
(>32a	.	.	.
[4g	8e])	24ryy	.
.	.	24fLL	.
.	.	24ee	.
.	8r	24ff	.
.	.	24ee	.
.	.	24fJJ	.
(>8..gL]	(<8e	24ryy	.
.	.	24fLL	.
.	.	24ee	.
.	8r	24ff	.
.	.	24ee	.
.	.	24fJJ	.
32aJkk)	.	.	.
(>8..gL	4r	24ryy	.
.	.	24fLL	.
.	.	24ee	.
.	.	24ff	.
.	.	24ee	.
.	.	24fJJ	.
32aJkk)	.	.	.
=41	=41	=41	=41
(>8..ccL	8e	24ryy	.
.	.	24fLL	.
.	.	24ee	.
.	8r	24ff	.
.	.	24ee	.
.	.	24fJJ	.
32aJkk	.	.	.
2g	4ryy	24ryy	<
.	.	24fLL	.
.	.	24ee	.
.	.	24ff	.
.	.	24ee	.
.	.	24fJJ	.
.	8e	24ryy	.
.	.	24fLL	.
.	.	24ee	.
.	8r	24ff	.
.	.	24ee	.
.	.	24fJJ	.
4a)	4r	24ryy	[
.	.	24fLL	.
.	.	24ee	.
.	.	24ff	.
.	.	24ee	.
.	.	24fJJ)	.
*v	*v	*	*
=42	=42	=42
8e'	(24eLL	p
.	24f	.
.	24ee	.
8r	24ff	.
.	24ee	.
.	24fJJ	.
8e-X'	24e-LL	.
.	24f-	.
.	24ee-	.
8r	24ff-	.
.	24ee-	.
.	24f-JJ	.
8d'	24dLL	.
.	24e-	.
.	24dd	.
8r	24ee-	.
.	24dd	.
.	24e-JJ	.
8f'	24fLL	.
.	24g-X	.
.	24ffn	.
8r	24gg-	.
.	24ff	.
.	24g-JJ	.
=43	=43	=43
8e'	24enXLL	>
.	24f	.
.	24ee	.
8ryy	24ff	.
.	24ee	.
.	24fJJ	.
8e-X'	24e-LL	.
.	24f-	.
.	24ee-	.
8r	24ff-	.
.	24ee-	.
.	24e-JJ	.
8c'	24cLL	.
.	24d	.
.	24cc	.
8r	24dd	.
.	24cc	.
.	24dJJ	.
8c-X'	24c-LL	.
.	24d-X	.
.	24cc-X	.
8r	24dd-X	.
.	24cc-	.
.	24d-JJ)	]
=44||	=44||	=44||
*k[b-e-a-d-g-c-]	*k[b-e-a-d-g-c-]	*k[b-e-a-d-g-c-]
*^	*	*
!	!	!	!Dynamic Expression: piu
8r	[4B-	(24B-LL	p
.	.	24c-	.
.	.	24b-	.
16.re	.	24cc-	.
.	.	24b-	.
.	.	24c-JJ	.
(>32e-	.	.	.
[4d-)	8B-]	24ryy	.
.	.	24c-LL	.
.	.	24b-	.
.	8ryy	24cc-	.
.	.	24b-	.
.	.	24c-JJ	.
(>8..d-L]	2ryy	24ryy	.
.	.	24c-LL	.
.	.	24b-	.
.	.	24cc-	.
.	.	24b-	.
.	.	24c-JJ	.
32e-Jkk)	.	.	.
(>8..d-L	.	24ryy	.
.	.	24c-LL	.
.	.	24b-	.
.	.	24cc-	.
.	.	24b-	.
.	.	24c-JJ	.
32e-Jkk)	.	.	.
*v	*v	*	*
=45	=45	=45
(4g-'	24g-LL	.
.	24c-	.
.	24b-	.
.	24cc-	.
.	24b-	.
.	24c-JJ	.
4e-'	24e-LL	.
.	24c-	.
.	24b-	.
.	24cc-	.
.	24b-	.
.	24c-JJ	.
4d-'	24d-LL	.
.	24c-	.
.	24b-	.
.	24cc-	.
.	24b-	.
.	24c-JJ	.
*clefF4	*	*
[4B-~)	24B-LL	.
.	24c-	.
.	24b-	.
.	24cc-	.
.	24b-	.
.	24c-JJ)	.
=46	=46	=46
*^	*	*
(>2B-]	8r	24ryy	.
.	.	(24c-LL	.
.	.	24b-	.
.	16.r	24cc-	.
.	.	24b-	.
.	.	24c-JJ	.
.	(<32E-	.	.
.	[4D-	24ryy	.
.	.	24c-LL	.
.	.	24b-	.
.	.	24cc-	.
.	.	24b-	.
.	.	24c-JJ	.
2B-	8..D-L]	24ryy	.
.	.	24c-LL	.
.	.	24b-	.
.	.	24cc-	.
.	.	24b-	.
.	.	24c-JJ	.
.	32E-Jkk	.	.
.	8..D-L	24ryy	.
.	.	24c-LL	.
.	.	24b-	.
.	.	24cc-	.
.	.	24b-	.
.	.	24c-JJ	.
.	32E-Jkk)	.	.
=47	=47	=47	=47
2B-	(<4G-	24ryy	.
.	.	24c-LL	.
.	.	24b-	.
.	.	24cc-	.
.	.	24b-	.
.	.	24c-JJ	.
.	4E-	24ryy	.
.	.	24c-LL	.
.	.	24b-	.
.	.	24cc-	.
.	.	24b-	.
.	.	24c-JJ	.
2B-	4D-	24ryy	.
.	.	24c-LL	.
.	.	24b-	.
.	.	24cc-	.
.	.	24b-	.
.	.	24c-JJ	.
.	[4BB-)	24ryy	.
.	.	24c-LL	.
.	.	24b-	.
.	.	24cc-	.
.	.	24b-	.
.	.	24c-JJ)	.
=48	=48	=48	=48
1ryy	(<4BB-]	24ryy	p<
.	.	(24c-LL	.
.	.	24b-	.
.	.	24cc-	.
.	.	24b-	.
.	.	24c-JJ	.
.	4D-) 4G- 4d-	24ryy	[
.	.	24c-LL	.
.	.	24b-	.
.	.	24cc-	.
.	.	24b-	.
.	.	24c-JJ	.
.	(<4BB-	24ryy	p<
.	.	24c-LL	.
.	.	24b-	.
.	.	24cc-	.
.	.	24b-	.
.	.	24c-JJ	.
.	4E-) 4A- 4e-	24ryy	[
.	.	24c-LL	.
.	.	24b-	.
.	.	24cc-	.
.	.	24b-	.
.	.	24c-JJ	.
*v	*v	*	*
=49	=49	=49
(>4BB-	24ryy	p<
.	24c-LL	.
.	24b-	.
.	24cc-	.
.	24b-	.
.	24c-JJ	.
4D-) 4G- 4d-	24ryy	[
.	24c-LL	.
.	24b-	.
.	24cc-	.
.	24b-	.
.	24c-JJ	.
(>4BB-	24ryy	p<
.	24c-LL	.
.	24b-	.
.	24cc-	.
.	24b-	.
.	24c-JJ	.
4E-) 4A- 4e-	24ryy	[
.	24c-LL	.
.	24b-	.
.	24cc-	.
.	24bb-	.
.	24ccc-JJ)	.
=50	=50	=50
*	*8va	*
[1EEE- [1BBB-	(>8ddd-'L 8eee- 8ggg- 8bbb-	pp
.	8bb-' 8cccn 8eee- 8ggg-	.
.	8gg-' 8bb- 8ddd- 8eee-	.
.	8ee-'J 8gg- 8bb- 8ccc	.
*	*X8va	*
.	8dd-'L 8ee- 8gg- 8bb-	.
.	8b-' 8cc 8ee- 8gg-	.
.	8g-' 8b- 8dd- 8ee-	.
.	8e-'J 8g- 8b- 8cc	.
=51	=51	=51
!Tempo Marking: Cedez	!Tempo Marking: Cedez	!Tempo Marking: Cedez
2EEE-] 2BBB-]	8d-'L 8e- 8g- 8b-	.
.	8B-' 8cn 8e- 8g-	.
*	*clefF4	*
.	8G-' 8B- 8d- 8e-	.
.	8E-'ZJ) 8G- 8B- 8cn	.
*	*clefG2	*
!	!Tempo Marking: a Tempo	!Tempo Marking: a Tempo
8B-'	(24B-LL	<
.	24c-X	.
.	24b-	.
8ryy	24cc-	.
.	24b-	.
.	24c-JJ	.
8B-'	24B-LL	.
.	24c-	.
.	24b-	.
8ryy	24cc-	.
.	24b-	.
.	24c-JJ)	.
=52	=52	=52
*	*8va	*
[1EEE- [1BBB-	(8ddd-'L 8eee- 8ggg- 8bbb-	[pp
.	8bb-' 8cccn 8eee- 8ggg-	.
.	8gg-' 8bb- 8ddd- 8eee-	.
.	8ee-'J 8gg- 8bb- 8ccc	.
*	*X8va	*
.	8dd-'L 8ee- 8gg- 8bb-	.
.	8b-' 8cc 8ee- 8gg-	.
.	8g-' 8b- 8dd- 8ee-	.
.	8e-'J 8g- 8b- 8cc	.
=53	=53	=53
!Tempo Marking: Cedez	!Tempo Marking: Cedez	!Tempo Marking: Cedez
2EEE-] 2BBB-]	8d-'L 8e- 8g- 8b-	.
.	8B-' 8cn 8e- 8g-	.
*	*clefF4	*
.	8G-' 8B- 8d- 8e-	.
.	8E-'J) 8G- 8B- 8cn	.
*	*clefG2	*
!Tempo Marking: a Tempo	!Tempo Marking: a Tempo	!Tempo Marking: a Tempo
8B-'	(24B-LL	.
.	24c-X	.
.	24b-	.
8ryy	24cc-	.
.	24b-	.
.	24c-JJ	.
8B-'	24B-LL	.
.	24c-	.
.	24b-	.
8ryy	24cc-	.
.	24b-	.
.	24c-JJ	.
=54	=54	=54
*clefG2	*	*
*	*^	*
1B-	(12B-L	4ryy	<
.	12c	.	.
.	12c-J 12e- 12g-	.	.
.	2.cn) 2.en 2.gn	24B-LL	[p
.	.	24c-X	.
.	.	24b-	.
.	.	24cc-X	.
.	.	24b-	.
.	.	24c-XJJ	.
.	.	24B-LL	.
.	.	24c-	.
.	.	24b-	.
.	.	24cc-	.
.	.	24b-	.
.	.	24c-JJ	.
.	.	24B-LL	.
.	.	24c-	.
.	.	24b-	.
.	.	24cc-	.
.	.	24b-	.
.	.	24c-JJ)	.
=55	=55	=55	=55
1B-	(12B-L	4ryy	<
.	12c	.	.
.	12c-J 12e- 12g-	.	.
.	[2.cn) 2.en 2.gn	(24B-LL	[p
.	.	24c-X	.
.	.	24b-	.
.	.	24cc-X	.
.	.	24b-	.
.	.	24c-XJJ	.
.	.	24B-LL	.
.	.	24c-	.
.	.	24b-	.
.	.	24cc-	.
.	.	24b-	.
.	.	24c-JJ	.
.	.	24B-LL	.
.	.	24c-	.
.	.	24b-	.
.	.	24cc-	.
.	.	24b-	.
.	.	24c-JJ)	.
=56	=56	=56	=56
1B-	4cn] 4en] 4gn]	(>24B-LL	.
.	.	24c-X	.
.	.	24b-	.
.	.	24cc-X	.
.	.	24b-	.
.	.	24c-XJJ	.
.	[2.d-~ [2.f [2.a-	24B-LL	pp
.	.	24c-	.
.	.	24b-	.
.	.	24cc-X	.
.	.	24b-	.
.	.	24c-XJJ	.
.	.	24B-LL	.
.	.	24c-	.
.	.	24b-	.
.	.	24cc-	.
.	.	24b-	.
.	.	24c-JJ	.
.	.	24B-LL	.
.	.	24c-	.
.	.	24b-	.
.	.	24cc-	.
.	.	24b-	.
.	.	24c-JJ	.
=57	=57	=57	=57
!Tempo Marking: Un peu retenu	!Tempo Marking: Un peu retenu	!Tempo Marking: Un peu retenu	!Tempo Marking: Un peu retenu
1B-	2d-] 2f] 2a-]	24B-LL	.
.	.	24c-	.
.	.	24b-	.
.	.	24cc-	.
.	.	24b-	.
.	.	24c-JJ	.
.	.	24B-LL	.
.	.	24c-	.
.	.	24b-	.
.	.	24cc-	.
.	.	24b-	.
.	.	24c-JJ	.
!	!	!	!Dynamic Expression: piu
.	2dn 2f#X 2an	24B-LL	pp
.	.	24c-	.
.	.	24b-	.
.	.	24cc-	.
.	.	24b-	.
.	.	24c-JJ	.
.	.	24B-LL	.
.	.	24c-	.
.	.	24b-	.
.	.	24cc-	.
.	.	24b-	.
.	.	24c-JJ)	.
*	*v	*v	*
=58	=58	=58
[1B-	(12B-'L	ppp
.	12c-'	.
.	[12b-~HJ) [12bb-h	.
.	2.b-] 2.bb-]	.
=59	=59	=59
!Expression: laissez vibrer	!	!
1B-;]	1r;	.
==	==	==
*-	*-	*-
!!!system-decoration: {(s1,s2)}
!!!RDF**kern: > = above
!!!RDF**kern: < = below
!!!RDF**kern: Z = caesura
